!!!!SEGMENT: 074-1-Sam-007.krn
!!!COM: Fryderyk Chopin
!!!OTL: Poseł
!!!OPS: Op. 74
!!!PTL: 16 | Polnische Lieder | von Witwicki, Zaleski Mickiewicz etc. | für eine Singstimme | mit Begleitung des Pianoforte
!!!PPR: Schlesinger
!!!PPP: Berlin
!!!AGN: Song
!!!NIFC-rismID: BRAK
!!!NIFC-shelfmark: PL-Wbfc 6138/n
!!!OMD: Andantino.
!!!OMD: M. M. [quarter] = 100.
**kern	**kern	**dynam	**kern	**text	**dynam
*part2	*part2	*part2	*part1	*	*part1
*staff3	*staff2	*	*staff1	*	*
*I"PIANO.	*I"PIANO.	*	*	*	*
*clefF4	*clefG2	*	*clefG2	*	*
*k[f#c#]	*k[f#c#]	*	*k[f#c#]	*	*
*D:	*D:	*	*D:	*	*
*M2/4	*M2/4	*	*M2/4	*	*
*	*	*	*	*	*
=1	=1	=1	=1	=1	=1
*	*^	*	*	*	*
!LO:TX:t=P:nie wyświetla się "Andantino."	!	!	!	!	!	!
!LO:TX:t=P:W niektórych miejscach dynamikę musiałem kodować w pierwszym spinie zamiast w drugim, aby wyświetlała się poprawnie:problem	!	!	!LO:DY:rj	!	!	!
2A 2D	2a	8.gL	p	2rdd	.	.
.	.	16f#Jk	.	.	.	.
.	.	16eLL	.	.	.	.
.	.	16f#J	.	.	.	.
.	.	8dJ	.	.	.	.
=2	=2	=2	=2	=2	=2	=2
2A 2D	2a	8.gL	.	2rdd	.	.
.	.	16f#Jk	.	.	.	.
.	.	16eLL	.	.	.	.
.	.	16f#J	.	.	.	.
.	.	8dJ	.	.	.	.
=3	=3	=3	=3	=3	=3	=3
*^	*	*	*	*	*	*
16BLL	2D	16g#XLL	8e#X	.	2rdd	.	.
16G#XJJ	.	16bJJ	.	.	.	.	.
4.A	.	4.a	4.f#	.	.	.	.
=4	=4	=4	=4	=4	=4	=4	=4
16BLL	2D	16g#XLL	8e#X	.	2rdd	.	.
16G#XJJ	.	16bJJ	.	.	.	.	.
4.A	.	4.a	4.f#	.	.	.	.
*v	*v	*	*	*	*	*	*
=5	=5	=5	=5	=5	=5	=5
2A 2D	2a	8.gL	.	2rdd	.	.
.	.	16f#Jk	.	.	.	.
.	.	16eLL	.	.	.	.
.	.	16f#J	.	.	.	.
.	.	8dJ	.	.	.	.
=6	=6	=6	=6	=6	=6	=6
2A 2D	2a	8.gL	.	2rdd	.	.
.	.	16f#Jk	.	.	.	.
.	.	16eLL	.	.	.	.
.	.	16f#J	.	.	.	.
.	.	8dJ	.	.	.	.
=7	=7	=7	=7	=7	=7	=7
*^	*	*	*	*	*	*
16ELL	2AA	2a	16c#LL	.	2rdd	.	.
16F#JJ	.	.	16AJJ	.	.	.	.
4.E	.	.	4.c#	.	.	.	.
=8	=8	=8	=8	=8	=8	=8	=8
16ELL	2AA	2a	16c#LL	.	2rdd	.	.
16F#JJ	.	.	16AJJ	.	.	.	.
4.E;<	.	.	4.c#;>	.	.	.	.
*v	*v	*	*	*	*	*	*
*	*v	*v	*	*	*	*
!!LO:LB:g=original
=9||	=9||	=9||	=9||	=9||	=9||
4A 4D	4f# 4d	pp	8d	Blü-	.
!	!	!	!	!	!LO:HP:a
.	.	.	.	.	<
.	.	.	8e	-hen	.
8AL 8D	8f#L 8d	.	8f#	Flur	.
8AJ 8D	8f#J 8d	.	8b/	und	[
=10	=10	=10	=10	=10	=10
*^	*	*	*	*	*
!	!	!	!	!	!	!LO:HP:a
2A	4D	2f# 2d	.	4a	Fel-	>
.	(32qqC#/LLL	.	.	.	.	.
.	32qqBB/JJJ)	.	.	.	.	.
.	4AA	.	.	4f#	-der,	]
*v	*v	*	*	*	*	*
=11	=11	=11	=11	=11	=11
4A 4D	4f# 4d	.	8d	wär-	.
!	!	!	!	!	!LO:HP:a
.	.	.	8e	-mer	<
8BL 8D	8f#L 8d	<	8f#	scheint	.
!	!	!	!	!	!LO:HP:a
8BJ 8E	8g#XJ 8d	[	16g#XLL	die	[>
.	.	.	16f#JJ	.	]]
=12	=12	=12	=12	=12	=12
(4A 4E 4AA	(4a 4c#	.	(4e	Son-	]
8E\ 8AA\)	8cc# 8e)	.	8c#)	-ne,	.
8r	8r	.	8r	.	.
=13	=13	=13	=13	=13	=13
4A 4D	4f# 4d	.	8d	Nach-	.
!	!	!	!	!	!LO:HP:a
.	.	.	.	.	<
.	.	.	8e	-ti-	.
8AL 8D	8f#L 8d	.	8f#	-gall	.
8AJ 8D	8f#J 8d	.	8b/	du	[
=14	=14	=14	=14	=14	=14
*^	*	*	*	*	*
!	!	!	!	!	!	!LO:HP:a
2A	4D	2f# 2d	.	4a	kün-	>
.	(32qqC#/LLL	.	.	.	.	.
.	32qqBB/JJJ)	.	.	.	.	.
.	4AA	.	.	4f#	-dest	]
*v	*v	*	*	*	*	*
=15	=15	=15	=15	=15	=15
4F# 4BB	4f# 4d	.	8d	Len-	.
.	.	.	8e	-zes=	.
8F#L 8BB	8f#L 8d 8B	.	8f#	Glück	.
!	!	!	!	!	!LO:HP:a
8F#J 8BB	8f#J 8d 8B	.	16aLL	und	>
.	.	.	16gJJ	.	]]
!!LO:LB:g=original
=16	=16	=16	=16	=16	=16
2F# 2FF#	2f# 2c# 2A#X	sf	4g	Won-	.
.	.	.	8f#	-ne;	.
.	.	.	8r	.	.
=17	=17	=17	=17	=17	=17
!LO:TX:a:i:t=appass.	!	!	!	!	!
8A#XL	8f#L 8e 8c#	.	8f#	hast	.
!	!	!	!	!	!LO:HP:a
.	.	.	.	.	<
8A#	8f# 8e 8c#	.	8f#	ja	.
!	!	!	!	!	!LO:HP:a
8A#	8f# 8e 8c#	.	8g	Leid	[>
8A#J	8f#J 8e 8c#	.	8f#	und	]
=18	=18	=18	=18	=18	=18
!	!	!	!LO:TX:t=P:diminuendolike accent:problem	!	!
8BL	8f#L 8d	.	4dd^>	Kum-	.
8B	8f# 8d	.	.	.	.
8B	8g 8d	.	8b	-mer	.
8BJ	8gJ 8d	.	8r	.	.
=19	=19	=19	=19	=19	=19
!	!	!	!	!	!LO:HP:a
!LO:TX:i:t=acceler._:dur=2q:ext=ud:problem:text with line extensions	!	!	!	!	!
8c#L	8aL 8g 8e	.	8b/	oft	>
8c#	8a 8g 8e	.	8a	von	]
!	!	!	!	!	!LO:HP:a
8c#	8a 8g 8e	.	8b/	mir	>
8c#J	8aJ 8g 8e	.	8a	ge-	]
=20	=20	=20	=20	=20	=20
*	*^	*	*	*	*
4d	2a	4f#	.	[4a	-nom-	.
!LO:TX:i:t=rall.	!	!	!	!	!	!
.	.	.	.	.	.	.
[4A	.	4e 4c#	.	(>16aLL]	.	.
!LO:TX:t=a tempo.	!	!	!	!	!	!
.	.	.	.	.	.	.
.	.	.	.	16gJJ	.	.
!	!	!	!	!	!	!LO:DY:a
.	.	.	.	16f#LL	-men	.
.	.	.	.	16eJJ)	.	.
*	*v	*v	*	*	*	*
=21	=21	=21	=21	=21	=21
!	!	!LO:DY:a:rj	!	!	!
4A] 4D	4f# 4d	pp	8d	sei	.
!	!	!	!	!	!LO:HP:a
.	.	.	.	.	<
.	.	.	8e	du	.
8AL 8D	8f#L 8d	.	8f#	Früh-	.
8AJ 8D	8f#J 8d	.	8b/	-lings-	[
=22	=22	=22	=22	=22	=22
*^	*	*	*	*	*
2A	4D	4f# 4d	.	4a	-bo-	.
.	(32qqC#/LLL	.	.	.	.	.
.	32qqBB/JJJ)	.	.	.	.	.
!	!	!	!	!	!	!LO:HP:a
.	(4AA	4f# 4d	.	8f#	-te	>
.	.	.	.	8e	mir	]]
*v	*v	*	*	*	*	*
!!LO:LB:g=original
=23	=23	=23	=23	=23	=23
!	!	!	!	!	!LO:HP:a
4A 4D	4f# 4d)	.	8dL	freund-	.
!	!	!	!	!	!LO:HP:a
.	.	.	8eJ	.	<
8BL 8D	8f#L 8d	.	8f#	-lich	[
!	!	!	!	!	!LO:HP:a
8BJ 8E	8g#XJ 8d	.	16g#XLL	will-	>
.	.	.	16f#JJ	.	]]
=24	=24	=24	=24	=24	=24
(4A 4E 4AA	(<4a 4c#	.	(4e	kom-	.
8E\ 8AA\)	8cc# 8e)	.	8c#)	-men,	.
8r	8r	.	8r	.	.
=25	=25	=25	=25	=25	=25
4A 4D	4f# 4d	.	8d	sei	.
!	!	!	!	!	!LO:HP:a
.	.	.	8e	du	<
8AL 8D	8f#L 8d	.	8f#	Früh-	.
8AJ 8D	8f#J 8d	.	8b/	-lings-	[
=26	=26	=26	=26	=26	=26
4A 4D	4f# 4d	.	4a	-bo-	.
!	!	!	!	!	!LO:HP:a
8AL 8D	8f#L 8d	.	8f#	-te	<
8AJ 8D	8f#J 8d	.	8a	mir	[
=27	=27	=27	=27	=27	=27
!	!	!	!	!	!LO:HP:a
4GG\	4g 4d 4B-X	sf	8b-XL	freund-	>
.	.	.	8aJ	.	.
8AA\L	8gL 8c#< 8A<	.	8g	-lich	]
8AAJ	8gJ 8c#< 8A<	.	8e	will-	.
=28	=28	=28	=28	=28	=28
!	!	!	!	!	!LO:HP:a
*ped	*	*	*	*	*
4D	2f# 2d 2A<	.	8.f#L	-kom-	>
.	.	.	16eJk	.	.
4DD/	.	.	4d	-men.	]
*Xped	*	*	*	*	*
.	.	.	.	.	.
=29||!	=29||!	=29||!	=29||!	=29||!	=29||!
*	*^	*	*	*	*
2A 2D	2a	8.gLL	p	2rdd	.	.
.	.	16f#JJ	.	.	.	.
.	.	16eL	.	.	.	.
.	.	16f#	.	.	.	.
.	.	8dJ	.	.	.	.
!!LO:PB:g=original
=30	=30	=30	=30	=30	=30	=30
2A 2D	2a	8.gLL	.	2rdd	.	.
.	.	16f#JJ	.	.	.	.
.	.	16eL	.	.	.	.
.	.	16f#	.	.	.	.
.	.	8dJ	.	.	.	.
=31	=31	=31	=31	=31	=31	=31
*^	*	*	*	*	*	*
16B/L	2D	16g#LL	8e#	.	2rdd	.	.
16G#J	.	16bJJ	.	.	.	.	.
4.A/	.	4.a	4.f#\	.	.	.	.
*v	*v	*	*	*	*	*	*
=32	=32	=32	=32	=32	=32	=32
*^	*	*	*	*	*	*
16B/L	2D	16g#LL	8e#	.	2rdd	.	.
16G#J	.	16bJJ	.	.	.	.	.
4.A/	.	4.a	4.f#\	.	.	.	.
*v	*v	*	*	*	*	*	*
=33	=33	=33	=33	=33	=33	=33
2A 2D	2a	8.gLL	.	2rdd	.	.
.	.	16f#JJ	.	.	.	.
.	.	16eL	.	.	.	.
.	.	16f#	.	.	.	.
.	.	8dJ	.	.	.	.
=34	=34	=34	=34	=34	=34	=34
2A 2D	2a	8.gLL	.	2rdd	.	.
.	.	16f#JJ	.	.	.	.
.	.	16eL	.	.	.	.
.	.	16f#	.	.	.	.
.	.	8dJ	.	.	.	.
=35	=35	=35	=35	=35	=35	=35
*^	*	*	*	*	*	*
16E/L	2AA\	2a	16c#L	.	2rdd	.	.
16F#J	.	.	16AJ	.	.	.	.
4.E/	.	.	4.c#	.	.	.	.
*v	*v	*	*	*	*	*	*
=36	=36	=36	=36	=36	=36	=36
*^	*	*	*	*	*	*
16E/L	2AA\	2a	16c#L	.	2rdd	.	.
16F#J	.	.	16AJ	.	.	.	.
4.E;</	.	.	4.c#;>	.	.	.	.
*	*	*v	*v	*	*	*	*
*v	*v	*	*	*	*	*
=37||	=37||	=37||	=37||	=37||	=37||
!	!	!	!	!	!LO:HP:a
4A 4D	4f# 4d	.	8d	Dei-	<
.	.	.	8e	-ne	.
8AL 8D	8f#L 8d	.	8f#	-sü-	.
8AJ 8D	8f#J 8d	.	8b/	-ssen	[
!!LO:LB:g=original
=38	=38	=38	=38	=38	=38
*^	*	*	*	*	*
!	!	!	!	!	!	!LO:HP:a
2A	4D	2f# 2d	.	4a	Lie-	>
.	(32qqC#/LLL	.	.	.	.	.
.	32qqBB/JJJ)	.	.	.	.	.
.	4AA	.	.	4f#	-der	]
*v	*v	*	*	*	*	*
=39	=39	=39	=39	=39	=39
4A 4D	4f# 4d	.	8d	hör'	.
!	!	!	!	!	!LO:HP:a
.	.	.	8e	ich	<
8BL 8D	8f#L 8d	.	8f#	ja	.
!	!	!	!	!	!LO:HP:a
.	.	.	.	.	[>
8BJ 8E	8g#XJ 8d	.	16g#XLL	so	.
.	.	.	16f#JJ	.	]]
=40	=40	=40	=40	=40	=40
(4A 4E 4AA	(<4a 4c#	.	(4e	ger-	]
8E\ 8AA\)	8cc# 8e)	.	8c#)	-ne	.
8r	8r	.	8r	.	.
=41	=41	=41	=41	=41	=41
!	!	!	!	!	!LO:HP:a
4A 4D	4f# 4d	.	8d	füh-	<
.	.	.	8e	-ren	.
8AL 8D	8f#L 8d	.	8f#	die	.
8AJ 8D	8f#J 8d	.	8b/	Ge-	[
=42	=42	=42	=42	=42	=42
*^	*	*	*	*	*
!	!	!	!	!	!	!LO:HP:a
2A	4D	2f# 2d	.	4a	-dan-	>
.	(32qqC#/LLL	.	.	.	.	]
.	32qqBB/JJJ)	.	.	.	.	.
.	4AA	.	.	4f#	-ken	.
*v	*v	*	*	*	*	*
=43	=43	=43	=43	=43	=43
4F# 4BB	4f# 4d	.	8d	in	.
.	.	.	8e	die	.
8F#L 8BB	8f#L 8d 8B	.	8f#	wei-	.
!	!	!	!	!	!LO:HP:a
8F#J 8BB	8f#J 8d 8B	.	16aLL	-te	>
.	.	.	16gJJ	.	]]
=44	=44	=44	=44	=44	=44
!	!	!	!	!	!LO:HP:a
2F# 2FF#	2f# 2c# 2A#X	.	4g	Fer-	>
.	.	.	8f#	-ne;	]
.	.	.	8r	.	.
!!LO:LB:g=original
=45	=45	=45	=45	=45	=45
!LO:TX:a:i:t=appass.	!	!	!	!	!
8A#XL	8f#L 8e 8c#	.	8f#	füh-	.
8A#	8f# 8e 8c#	.	8f#	-ren	.
8A#	8f# 8e 8c#	.	8g	zu	.
8A#J	8f#J 8e 8c#	.	8f#	der	]]
.	.	.	.	.	.
=46	=46	=46	=46	=46	=46
!	!LO:TX:b:t=cresc. _ :problem:dynamics with line extensions 	!	!	!	!
!	!	!LO:HP:i:b:t=cresc.:ext=ud	!	!	!
8BL	8f#L 8d	<	4dd	Hol-	>
8B	8f# 8d	.	.	.	.
8B	8g 8d	.	8b	-den,	]
8BJ	8gJ 8d	[	8r	.	.
=47	=47	=47	=47	=47	=47
!	!	!	!	!	!LO:HP:a
!LO:TX:i:t=accell.	!	!	!	!	!
8c#L	8aL 8g 8e	.	8b/	die	>
8c#	8a 8g 8e	.	8a	mein	]
!	!	!	!	!	!LO:HP:a
8c#	8a 8g 8e	.	8b/	Glück	>
8c#J	8aJ 8g 8e	.	8a	hie-	]
=48	=48	=48	=48	=48	=48
*	*^	*	*	*	*
!LO:TX:a:i:t=rallent.	!	!	!	!	!	!
4d	2a	4f#	.	[4a	-nie	.
[4A	.	4e 4c#	.	(>16aLL]	.	.
!LO:TX:a:t=a tempo	!	!	!	!	!	!
.	.	.	.	.	.	.
.	.	.	.	16gJJ	.	.
!	!	!	!	!	!	!LO:DY:a
.	.	.	.	16f#LL	-den,	.
.	.	.	.	16eJJ)	.	.
*	*v	*v	*	*	*	*
=49	=49	=49	=49	=49	=49
!	!	!	!	!	!LO:HP:a
4A] 4D	4f# 4d	p	8d	ach	<
.	.	.	8e	mit	.
8AL 8D	8f#L 8d	.	8f#	dei-	.
8AJ 8D	8f#J 8d	.	8b/	-nen	[
=50	=50	=50	=50	=50	=50
*^	*	*	*	*	*
!	!	!	!	!	!	!LO:HP:a
2A	4D	4f# 4d	.	(4a	Klän-	>
.	(32qqC#/LLL	.	.	.	.	.
.	32qqBB/JJJ)	.	.	.	.	.
.	(4AA	4f# 4d	.	8f#)	.	]
.	.	.	.	8e	-gen	.
*v	*v	*	*	*	*	*
=51	=51	=51	=51	=51	=51
!	!	!	!	!	!LO:HP:a
4A 4D	4f# 4d)	.	8d	war	<
!	!	!	!	!	!LO:HP:a
.	.	.	8e	auch	.
8BL 8D	8f#L 8d	.	8f#	sie	[
!	!	!	!	!	!LO:HP:a
8BJ 8E	8g#XJ 8d	.	16g#XLL	ge-	>
.	.	.	16f#JJ	.	]]
!!LO:LB:g=original
=52	=52	=52	=52	=52	=52
(4A 4E 4AA	(<4a 4c#	.	(4e	schie-	.
8E\ 8AA\)	8cc# 8e)	.	8c#)	-den,	.
8r	8r	.	8r	.	.
=53	=53	=53	=53	=53	=53
!	!	!	!	!	!LO:HP:a
4A 4D	4f# 4d	.	8d	ach	<
.	.	.	8e	mit	.
8AL 8D	8f#L 8d	.	8f#	dei-	.
8AJ 8D	8f#J 8d	.	8b/	-nen	[
=54	=54	=54	=54	=54	=54
4A 4D	4f# 4d	.	(4a	Klän-	.
8AL 8D	8f#L 8d	.	8f#)	.	.
!	!	!	!	!	!LO:HP:a
8AJ 8D	8f#J 8d	.	8a	-gen	<
=55	=55	=55	=55	=55	=55
!	!	!	!	!	!LO:HP:a
!	!	!LO:DY:rj	!	!	!
4GG\	4g 4d 4B-X	.	8b-X/	war	[
!	!	!	!	!	!LO:HP:a
.	.	.	8a	auch	>
8AA\L	8gL 8c#< 8A<	.	8g	sie	.
8AAJ	8gJ 8c#< 8A<	.	8e	ge-	]
=56	=56	=56	=56	=56	=56
!	!	!	!	!	!LO:HP:a
4D	2f# 2d 2A<	.	8.f#L	-schie-	>
.	.	.	16eJk	.	.
4DD\	.	.	4d	-den.	]
=57||!	=57||!	=57||!	=57||!	=57||!	=57||!
*	*^	*	*	*	*
2A 2D	2a	8.gLL	p	2rdd	.	.
.	.	16f#JJ	.	.	.	.
.	.	16eL	.	.	.	.
.	.	16f#	.	.	.	.
.	.	8dJ	.	.	.	.
=58	=58	=58	=58	=58	=58	=58
2A 2D	2a	8.gLL	.	2rdd	.	.
.	.	16f#JJ	.	.	.	.
.	.	16eL	.	.	.	.
.	.	16f#	.	.	.	.
.	.	8dJ	.	.	.	.
=59	=59	=59	=59	=59	=59	=59
*^	*	*	*	*	*	*
16B/L	2D	16g#LL	8e#	.	2rdd	.	.
16G#J	.	16bJJ	.	.	.	.	.
4.A/	.	4.a	4.f#\	.	.	.	.
*v	*v	*	*	*	*	*	*
!!LO:PB:g=original
=60	=60	=60	=60	=60	=60	=60
*^	*	*	*	*	*	*
16B/L	2D	16g#LL	8e#	.	2rdd	.	.
16G#J	.	16bJJ	.	.	.	.	.
4.A/	.	4.a	4.f#\	.	.	.	.
*v	*v	*	*	*	*	*	*
=61	=61	=61	=61	=61	=61	=61
2A 2D	2a	8.gLL	.	2rdd	.	.
.	.	16f#JJ	.	.	.	.
.	.	16eL	.	.	.	.
.	.	16f#	.	.	.	.
.	.	8dJ	.	.	.	.
=62	=62	=62	=62	=62	=62	=62
2A 2D	2a	8.gLL	.	2rdd	.	.
.	.	16f#JJ	.	.	.	.
.	.	16eL	.	.	.	.
.	.	16f#	.	.	.	.
.	.	8dJ	.	.	.	.
=63	=63	=63	=63	=63	=63	=63
*^	*	*	*	*	*	*
16E/L	2AA\	2a	16c#L	.	2rdd	.	.
16F#J	.	.	16AJ	.	.	.	.
4.E/	.	.	4.c#	.	.	.	.
*v	*v	*	*	*	*	*	*
=64	=64	=64	=64	=64	=64	=64
*^	*	*	*	*	*	*
16E/L	2AA\	2a	16c#L	.	2rdd	.	.
16F#J	.	.	16AJ	.	.	.	.
4.E;</	.	.	4.c#;>	.	.	.	.
*	*	*v	*v	*	*	*	*
*v	*v	*	*	*	*	*
=65||	=65||	=65||	=65||	=65||	=65||
4A 4D	4f# 4d	pp	8d	Hier	.
!	!	!	!	!	!LO:HP:a
.	.	.	8e	am	.
8AL 8D	8f#L 8d	.	8f#	Hals	.
8AJ 8D	8f#J 8d	.	8b/	der	.
=66	=66	=66	=66	=66	=66
*^	*	*	*	*	*
2A	4D	2f# 2d	.	4a	Mut-	.
.	(32qqC#/LLL	.	.	.	.	.
.	32qqBB/JJJ)	.	.	.	.	.
.	4AA	.	.	4f#	-ter	.
*v	*v	*	*	*	*	*
=67	=67	=67	=67	=67	=67
4A 4D	4f# 4d	.	8d	hat	.
.	.	.	8e	sie	.
!	!	!	!	!	!LO:HP:a
8BL 8D	8f#L 8d	.	8f#	noch	.
8BJ 8E	8g#XJ 8d	.	16g#XLL	ge-	.
!	!	!	!	!	!LO:HP:a
.	.	.	16f#JJ	.	.
=68	=68	=68	=68	=68	=68
(>4A 4E 4AA	(<4a 4c#	.	4e	-wei-	.
8E\ 8AA\)	8cc# 8e)	.	8c#	-net,	.
8r	8r	.	8r	.	.
!!LO:LB:g=original
=69	=69	=69	=69	=69	=69
4A 4D	4f# 4d	.	8d	folg-	.
.	.	.	8e	-te	.
8AL 8D	8f#L 8d	.	8f#	dem	.
8AJ 8D	8f#J 8d	.	8b/	Sol-	.
=70	=70	=70	=70	=70	=70
*^	*	*	*	*	*
2A	4D	2f# 2d	.	4a	-da-	.
.	(32qqC#/LLL	.	.	.	.	.
.	32qqBB/JJJ)	.	.	.	.	.
.	4AA/	.	.	4f#	-ten	.
*v	*v	*	*	*	*	*
=71	=71	=71	=71	=71	=71
4F# 4BB	4f# 4d	.	8d	dem	.
.	.	.	8e	sie	.
8F#L 8BB	8f#L 8d 8B	.	8f#	sich	.
!	!	!	!	!	!LO:HP:a
8F#J 8BB	8f#J 8d 8B	.	16aLL	ver-	>
.	.	.	16gJJ	.	]]
=72	=72	=72	=72	=72	=72
!	!	!LO:DY:rj	!	!	!LO:HP:a
2F# 2FF#	2f# 2c# 2A#X	.	4g	-ei-	>
.	.	.	8f#	-net.	]
!LO:TX:a:i:t=appass.	!	!	!	!	!
.	.	.	8r	.	.
=73	=73	=73	=73	=73	=73
8A#XL	8f#L 8e 8c#	.	8f#	Flieg'	.
!	!	!	!	!	!LO:HP:a
8A#	8f# 8e 8c#	.	8f#	zu	.
!	!	!	!	!	!LO:HP:a
8A#	8f# 8e 8c#	.	8g	ihr	.
!	!LO:TX:b:t=cresc. _ :problem:dynamics with line extensions 	!	!	!	!
!	!	!LO:HP:b:i:t=cresc.:ext=ud	!	!	!
8A#J	8f#J 8e 8c#	<	8f#	und	]]
=74	=74	=74	=74	=74	=74
8BL	8f#L 8d	.	4dd	sie-	.
8B	8f# 8d	.	.	.	.
8B	8g 8d	.	8b	-he	.
8BJ	8gJ 8d	[	8r	.	.
=75	=75	=75	=75	=75	=75
!	!	!	!	!	!LO:HP:a
!LO:TX:a:i:t=accell.	!	!	!	!	!
8c#L	8aL 8g 8e	.	8b/	ob	.
8c#	8a 8g 8e	.	8a	sie	.
8c#	8a 8g 8e	.	8b/	Glück	.
8c#J	8aJ 8g 8e	.	8a	er-	.
!!LO:LB:g=original
=76	=76	=76	=76	=76	=76
*	*^	*	*	*	*
!LO:TX:a:i:t=rall.	!	!	!	!	!	!
4d	2a	4f#	.	[4a	-wor-	.
[4A	.	4e 4c#	.	(>16aLL]	.	.
!	!LO:TX:b:t=a tempo.	!	!	!	!	!
.	.	.	.	.	.	.
.	.	.	.	16gJJ	.	.
!	!	!	!	!	!	!LO:DY:a
.	.	.	.	16f#LL	-ben;	.
.	.	.	.	16eJJ)	.	.
*	*v	*v	*	*	*	*
=77	=77	=77	=77	=77	=77
!	!	!LO:DY:rj	!	!	!
4A] 4D	4f# 4d	p	8d	sag'	.
.	.	.	8e	mir:	.
8AL 8D	8f#L 8d	.	8f#	ob	.
8AJ 8D	8f#J 8d	.	8b/	sie	.
=78	=78	=78	=78	=78	=78
*^	*	*	*	*	*
2A	4D	4f# 4d	.	(4a	le-	.
.	(32qqC#/LLL	.	.	.	.	.
.	32qqBB/JJJ)	.	.	.	.	.
.	(4AA	4f# 4d	.	8f#)	.	.
.	.	.	.	8e	-bet,	.
*v	*v	*	*	*	*	*
=79	=79	=79	=79	=79	=79
4A 4D	4f# 4d)	.	8d	ob	.
.	.	.	8e	sie	.
8BL 8D	8f#L 8d	<	8f#	ist	.
8BJ 8E	8g#XJ 8d	[	16g#XLL	ge-	.
.	.	.	16f#JJ	.	.
=80	=80	=80	=80	=80	=80
(4A 4E 4AA	(<4a 4c#	.	4e	-stor-	.
8E\ 8AA\)	8cc# 8e)	.	8c#	-ben,	.
8r	8r	.	8r	.	.
=81	=81	=81	=81	=81	=81
4A 4D	4f# 4d	.	8d	sag'	.
.	.	.	8e	mir:	.
8AL 8D	8f#L 8d	.	8f#	ob	.
8AJ 8D	8f#J 8d	.	8b/	sie	.
!!LO:LB:g=original
=82	=82	=82	=82	=82	=82
4A 4D	4f# 4d	.	(<4a	le-	.
8AL 8D	8f#L 8d	.	8f#)	.	.
8AJ 8D	8f#J 8d	.	8a	-bet,	.
=83	=83	=83	=83	=83	=83
4GG\	4g 4d 4B-X	.	8b-X/	ob	.
.	.	.	8a	sie	.
8AA\L	8gL 8c#< 8A<	.	8g	ist	.
8AAJ	8gJ 8c#< 8A<	.	8e	ge-	.
=84	=84	=84	=84	=84	=84
4D	2f# 2d 2A<	.	8.f#L	-stor-	.
.	.	.	16eJk	.	.
4DD\	.	.	4d	-ben.	.
=85	=85	=85	=85	=85	=85
*	*^	*	*	*	*
*ped	*	*	*	*	*	*
2A 2D	(>16ff#L	2f#	pp	2rdd	.	.
.	16aJ	.	.	.	.	.
.	4.dd)	.	.	.	.	.
=86	=86	=86	=86	=86	=86	=86
2A 2D	(>16ff#L	2f#	.	2rdd	.	.
.	16aJ	.	.	.	.	.
.	4.dd)	.	.	.	.	.
=87	=87	=87	=87	=87	=87	=87
!	!	!LO:TX:t=P:invisible beam:problem	!	!	!	!
[<2D [>2A	(>16ff#L	2f#	.	2rdd	.	.
.	16a	.	.	.	.	.
.	8ddJ)	.	.	.	.	.
.	(>16ff#L	.	.	.	.	.
.	16a	.	.	.	.	.
.	8ddJ)	.	.	.	.	.
*	*v	*v	*	*	*	*
=88	=88	=88	=88	=88	=88
2D] 2A];>	2ddd;>	.	2r	.	.
!	!LO:TX:i:B:b:t=Fine	!	!	!	!
*Xped	*	*	*	*	*
.	.	.	.	.	.
==	==	==	==	==	==
*-	*-	*-	*-	*-	*-
!!title: @{OTL}; @{OPS} @{ONM} publisher: @{PPR}
!!!system-decoration: (s1){(s2,s3)}
!!!RDF**kern: > = above
!!!RDF**kern: < = below
!!!ENC: Jędrzej Mróz
!!!END: 2020-01-28
!!!EED: 
!!!EST: revision finished 2020-02-
